tools/download-figma-icons/icons/outlined-large/law.svg

<svg width="64" height="64" viewBox="0 0 64 64" fill="none" xmlns="http://www.w3.org/2000/svg">
<path fill-rule="evenodd" clip-rule="evenodd" d="M31.7944 23.6495L34.8614 29.0265L38.2024 34.8795L49.7834 28.1135L40.0184 11.0055L28.4384 17.7705L31.7714 23.6115C31.7794 23.6245 31.7874 23.6365 31.7944 23.6495ZM19.8014 32.4855L21.4424 35.2205L31.5254 29.2325L29.9444 26.4625L19.8014 32.4855ZM4.16937 44.9485C4.56037 45.0535 4.97337 44.9995 5.32937 44.7915L18.8634 36.7525L17.2224 34.0175L3.78337 42.0005C3.02437 42.4425 2.76937 43.4185 3.20437 44.1805C3.43137 44.5805 3.76737 44.8405 4.16937 44.9485ZM21.5344 14.6355L23.0834 17.4245L39.8134 7.65154C39.8144 7.65154 39.8144 7.65054 39.8144 7.65054L42.0744 6.33054L40.4934 3.55954L21.5344 14.6355ZM56.4864 31.3745L54.9524 28.5675L52.5854 29.9505C52.5834 29.9515 52.5814 29.9535 52.5794 29.9555L38.4074 38.2335L36.1464 39.5535L37.7824 42.4205L56.4864 31.3745ZM37.9974 45.7775C37.6494 45.9815 37.2394 46.0375 36.8494 45.9355C36.4614 45.8325 36.1304 45.5785 35.9304 45.2285L32.8044 39.7515C32.3974 39.0375 32.6404 38.1285 33.3504 37.7135L35.6104 36.3925L33.0124 31.8395L6.85137 47.3765C6.14237 47.7905 5.35937 48.0015 4.56537 48.0015C4.17437 48.0015 3.78037 47.9505 3.39237 47.8455C2.21237 47.5295 1.22537 46.7675 0.617369 45.7005C-0.648631 43.4825 0.0973692 40.6765 2.26137 39.4145L28.4564 23.8565L25.8474 19.2845L23.2724 20.7885C22.9234 20.9925 22.5064 21.0475 22.1194 20.9395C21.7294 20.8335 21.4004 20.5745 21.2044 20.2215L18.1974 14.8095C17.8014 14.0965 18.0484 13.1975 18.7524 12.7865L40.2884 0.205537C40.6334 0.00353712 41.0484 -0.0514629 41.4324 0.0505371C41.8204 0.154537 42.1494 0.408537 42.3474 0.756537L45.4174 6.13254C45.8244 6.84654 45.5814 7.75554 44.8714 8.17154L42.6094 9.49254L52.3744 26.5995L54.7714 25.1995C55.1224 24.9945 55.5424 24.9425 55.9294 25.0485C56.3204 25.1575 56.6504 25.4195 56.8444 25.7745L59.8154 31.2085C60.2044 31.9185 59.9584 32.8075 59.2614 33.2195L37.9974 45.7775ZM61.0001 61.0001H36.9971V58.0001H61.0001V61.0001ZM36.4971 55.0001H61.5001C62.8791 55.0001 64.0001 56.1211 64.0001 57.5001V61.5001C64.0001 62.8791 62.8791 64.0001 61.5001 64.0001H36.4971C35.1171 64.0001 33.9961 62.8791 33.9961 61.5001V57.5001C33.9961 56.1211 35.1171 55.0001 36.4971 55.0001Z" fill="black"/>
</svg>

<svg width="64" height="64" viewBox="0 0 64 64" fill="none" xmlns="http://www.w3.org/2000/svg"><path fill-rule="evenodd" clip-rule="evenodd" d="m31.794 23.65 3.067 5.377 3.341 5.852 11.581-6.765-9.765-17.108-11.58 6.764 3.333 5.841.023.038Zm-11.993 8.836 1.641 2.735 10.083-5.988-1.58-2.77L19.8 32.486ZM4.17 44.949a1.51 1.51 0 0 0 1.16-.157l13.534-8.04-1.64-2.735L3.782 42a1.604 1.604 0 0 0-.579 2.18c.227.4.563.66.965.769Zm17.365-30.313 1.55 2.788 16.73-9.772V7.65l2.26-1.32-1.58-2.771-18.96 11.075Zm34.952 16.739-1.534-2.808-2.367 1.384c-.002 0-.004.002-.006.005l-14.172 8.277-2.26 1.32 1.635 2.867 18.704-11.046Zm-18.49 14.403a1.502 1.502 0 0 1-2.067-.549l-3.126-5.477a1.5 1.5 0 0 1 .546-2.038l2.26-1.322-2.598-4.553-26.16 15.538a4.487 4.487 0 0 1-3.459.469A4.52 4.52 0 0 1 .616 45.7c-1.266-2.218-.52-5.025 1.644-6.287l26.195-15.558-2.609-4.572-2.575 1.505a1.493 1.493 0 0 1-1.153.15 1.495 1.495 0 0 1-.915-.718l-3.007-5.412a1.5 1.5 0 0 1 .555-2.022L40.288.206a1.498 1.498 0 0 1 2.059.551l3.07 5.376a1.501 1.501 0 0 1-.546 2.039l-2.262 1.32L52.374 26.6l2.397-1.4a1.502 1.502 0 0 1 2.073.575l2.971 5.434c.39.71.143 1.598-.554 2.01L37.997 45.778ZM61 61H36.997v-3H61v3Zm-24.503-6H61.5c1.38 0 2.5 1.121 2.5 2.5v4a2.5 2.5 0 0 1-2.5 2.5H36.497a2.502 2.502 0 0 1-2.5-2.5v-4c0-1.379 1.12-2.5 2.5-2.5Z" fill="currentColor"/></svg>
